admin/src/theme/img/safetyequipment/4.svg

<?xml version="1.0" encoding="UTF-8"?>
<svg width="32px" height="32px" viewBox="0 0 32 32" version="1.1" xmlns="http://www.w3.org/2000/svg" xmlns:xlink="http://www.w3.org/1999/xlink">
    <title>FC6EFD59-FCE9-40D6-992C-E239EC5A1350</title>
    <g id="Squat-laskuri" stroke="none" stroke-width="1" fill="none" fill-rule="evenodd">
        <g id="colors_and_typography" transform="translate(-862.000000, -1098.000000)">
            <g id="turvalaite_ikonit" transform="translate(718.000000, 906.000000)">
                <g id="Asset-53" transform="translate(144.000000, 192.000000)">
                    <rect id="Rectangle" x="0" y="0" width="32" height="32"></rect>
                    <path d="M16,4.57333333 C16.6133333,4.57333333 17.1466667,4.8 17.6,5.25333333 C18.0533333,5.70666667 18.28,6.24 18.28,6.85333333 C18.28,7.46666667 18.0533333,8.02666667 17.6,8.46666667 C17.1466667,8.90666667 16.6133333,9.13333333 16,9.13333333 C15.3866667,9.13333333 14.8266667,8.90666667 14.3866667,8.46666667 C13.9466667,8.02666667 13.72,7.48 13.72,6.85333333 C13.72,6.22666667 13.9466667,5.70666667 14.3866667,5.25333333 C14.8266667,4.8 15.3733333,4.57333333 16,4.57333333 L16,4.57333333 Z M16,9.52 C15.36,9.52 14.8266667,9.74666667 14.3866667,10.2133333 C13.9466667,10.6666667 13.72,11.2 13.72,11.8133333 C13.72,12.4266667 13.9466667,12.9866667 14.3866667,13.44 C14.8266667,13.88 15.3733333,14.1066667 16,14.1066667 C16.6266667,14.1066667 17.1466667,13.88 17.6,13.44 C18.0533333,13 18.28,12.4533333 18.28,11.8133333 C18.28,11.1733333 18.0533333,10.6666667 17.6,10.2133333 C17.1466667,9.76 16.6133333,9.52 16,9.52 L16,9.52 Z M16,27.8 C15.4133333,27.8 14.92,28 14.52,28.4133333 C14.12,28.8266667 13.9066667,29.32 13.9066667,29.8933333 C13.9066667,30.4666667 14.1066667,30.9733333 14.52,31.3733333 C14.9333333,31.7733333 15.4266667,31.9866667 16,31.9866667 C16.5733333,31.9866667 17.0533333,31.7866667 17.4666667,31.3733333 C17.88,30.96 18.0933333,30.4666667 18.0933333,29.8933333 C18.0933333,29.32 17.88,28.8133333 17.4666667,28.4133333 C17.0533333,28.0133333 16.56,27.8 16,27.8 Z M16,28.3733333 C14.9866667,28.3733333 14.48,28.88 14.48,29.8933333 C14.48,30.9066667 14.9866667,31.4133333 16,31.4133333 C17.0133333,31.4133333 17.52,30.9066667 17.52,29.8933333 C17.52,28.88 17.0133333,28.3733333 16,28.3733333 Z M15.4266667,9.13333333 L16.5733333,9.13333333 L16.5733333,9.50666667 L15.4266667,9.50666667 L15.4266667,9.13333333 Z M15.4266667,14.08 L16.5733333,14.08 L16.5733333,27.8 L15.4266667,27.8 L15.4266667,14.0933333 L15.4266667,14.08 Z M16,29.32 C16.3866667,29.32 16.5733333,29.5066667 16.5733333,29.8933333 C16.5733333,30.28 16.3866667,30.4666667 16,30.4666667 C15.6133333,30.4666667 15.4266667,30.28 15.4266667,29.8933333 C15.4266667,29.5066667 15.6133333,29.32 16,29.32 Z" id="Shape" fill="#EC0E0E" fill-rule="nonzero"></path>
                </g>
            </g>
        </g>
    </g>
</svg>

<svg width="32" height="32" viewBox="0 0 32 32" xmlns="http://www.w3.org/2000/svg">
  <g fill="none" fill-rule="evenodd">
    <path d="M0 0h32v32H0z"/>
    <path d="M16 4.57333333c.6133333 0 1.1466667.22666667 1.6.68.4533333.45333334.68.98666667.68 1.6 0 .61333334-.2266667 1.17333334-.68 1.61333334-.4533333.44-.9866667.66666666-1.6.66666666-.6133333 0-1.1733333-.22666666-1.6133333-.66666666-.44-.44-.6666667-.98666667-.6666667-1.61333334 0-.62666666.2266667-1.14666666.6666667-1.6.44-.45333333.9866666-.68 1.6133333-.68ZM16 9.52c-.64 0-1.1733333.22666667-1.6133333.6933333-.44.4533334-.6666667.9866667-.6666667 1.6 0 .6133334.2266667 1.1733334.6666667 1.6266667.44.44.9866666.6666667 1.6133333.6666667.6266667 0 1.1466667-.2266667 1.6-.6666667.4533333-.44.68-.9866667.68-1.6266667 0-.64-.2266667-1.1466666-.68-1.6C17.1466667 9.76 16.6133333 9.52 16 9.52Zm0 18.28c-.5866667 0-1.08.2-1.48.6133333-.4.4133334-.6133333.9066667-.6133333 1.48 0 .5733334.2 1.08.6133333 1.48.4133333.4.9066667.6133334 1.48.6133334.5733333 0 1.0533333-.2 1.4666667-.6133334.4133333-.4133333.6266666-.9066666.6266666-1.48 0-.5733333-.2133333-1.08-.6266666-1.48C17.0533333 28.0133333 16.56 27.8 16 27.8Zm0 .5733333c-1.0133333 0-1.52.5066667-1.52 1.52 0 1.0133334.5066667 1.52 1.52 1.52s1.52-.5066666 1.52-1.52c0-1.0133333-.5066667-1.52-1.52-1.52Zm-.5733333-19.23999997h1.1466666v.37333334h-1.1466666v-.37333334Zm0 4.94666667h1.1466666V27.8h-1.1466666V14.08ZM16 29.32c.3866667 0 .5733333.1866667.5733333.5733333 0 .3866667-.1866666.5733334-.5733333.5733334-.3866667 0-.5733333-.1866667-.5733333-.5733334 0-.3866666.1866666-.5733333.5733333-.5733333Z" fill="#EC0E0E" fill-rule="nonzero"/>
  </g>
</svg>
